!!! OTL: Berkowitz376
!!! Chapter: 1
!!! Section: III
!!! Page: 82
!!! Mode: 
!!! Encoder: DJB
**kern
*staff1
*I"Piano
=1-
*clefG2
*k[f#]
*G:
*M3/4
4.b\
8dd\
8g/L
8b/J
=2
4d/
4d/
4d/
=3
4.cc\
8dd\
8a\L
8cc\J
=4
4d/
4d/
4d/
=5
4.b\
8cc\
8cc#\L
8dd\J
=6
4ee-\
4cc\
4g/
=7
4dd\
4b\
4g/
=8
8g#/L
8a/J
8dd\L
8cc\J
8b/L
8a/J
=9
4.b\
8dd\
8g/L
8b/J
=10
!!linebreak:original
4d/
4d/
4d/
=11
4.cc\
8b\
8cc\L
8dd\J
=12
8ee-\L
8cc\J
4g/
4r
=13
8dd\L
8b\J
4g/
4r
=14
8e/L
8g/J
4b\
4r
=15
8cc/L
8e-/J
8b/L
8a/J
8d/L
8a/J
=16
8g/L
8f#/J
4g/
4g/
==
*-
